images/football_theme_light.svg

<svg width="50" height="50" viewBox="0 0 50 50" fill="none" xmlns="http://www.w3.org/2000/svg">
<path d="M15.8745 2.16011C15.8745 1.83863 17.3929 1.23956 19.2479 0.829482C21.1028 0.418616 23.6927 0.0477557 25.0024 0.00384632C26.312 -0.040063 28.7448 0.297093 30.4084 0.753437C32.8714 1.42933 33.3881 1.90213 33.1865 3.29782C32.9825 4.71311 31.9292 5.27217 27.1502 6.50477L21.3607 7.99692L18.6176 5.37019C17.1088 3.92589 15.8745 2.4808 15.8745 2.16011Z" fill="#0086FF"/>
<path d="M21.8275 11.3481L26.9867 10.0199C29.8243 9.28988 32.515 8.65789 32.9666 8.61633C33.4183 8.57478 35.709 10.4629 38.0584 12.812L42.3286 17.0838L40.765 22.8093L39.2014 28.5347L33.0817 30.0809L26.9613 31.628L22.8291 27.5452L18.6962 23.4632L20.2622 17.4053L21.8275 11.3481Z" fill="#0086FF"/>
<path d="M43.9201 23.9705C44.8209 20.8749 45.9337 18.082 46.3925 17.7652C46.8513 17.4484 47.6347 17.1842 48.1339 17.1771C48.6332 17.1708 49.2579 17.7236 49.523 18.4058C49.7881 19.0879 50.0024 21.8221 50 24.4825C49.9976 27.1422 49.6119 30.6855 49.142 32.3564L48.2887 35.3932L45.2852 32.4968L42.2826 29.6003L43.9201 23.9705Z" fill="#0086FF"/>
<path d="M0.52861 30.5561C0.238106 29.1212 0 27.0653 0 25.9888C0 24.3367 0.186526 24.183 1.19059 25.0063C1.84541 25.5434 2.35577 26.9093 2.32561 28.0423C2.29466 29.1761 1.99702 30.7921 1.66286 31.6343C1.14932 32.9312 0.975478 32.7657 0.52861 30.5561Z" fill="#0086FF"/>
<path d="M5.95295 27.8251L9.52472 26.885C11.4892 26.3675 13.8227 25.9096 14.7109 25.8672C15.6777 25.821 18.0144 27.4801 20.5353 30.0018L24.7452 34.2124L23.3943 38.9687C22.6514 41.5852 21.5179 43.9249 20.8758 44.168C20.2337 44.4119 17.8636 44.8165 15.6086 45.0682C11.5329 45.5229 11.4876 45.5041 7.79757 41.735L4.08611 37.9439L5.01953 32.8849L5.95295 27.8251Z" fill="#0086FF"/>
<path d="M19.0494 48.515C19.0494 48.1512 19.8527 47.7302 20.8353 47.5796C21.8179 47.4283 23.4364 47.8039 24.4317 48.4147C25.4278 49.0263 26.0771 49.6896 25.8747 49.8896C25.6715 50.0895 24.0531 50.0103 22.2775 49.7139C20.5019 49.4175 19.0494 48.8781 19.0494 48.515Z" fill="#0086FF"/>
<path d="M9.02149 5.79048C7.65311 6.85606 5.42513 9.43494 4.06945 11.5214C2.71376 13.6087 1.4168 16.3491 1.18742 17.6131C0.871513 19.3538 1.27393 20.4656 2.85027 22.2055L4.92983 24.5021L9.8065 23.5173C12.4893 22.9763 14.9022 22.2957 15.1681 22.0056C15.4348 21.7155 16.3079 18.917 17.1088 15.7869L18.5653 10.0959L15.4713 6.96583C13.7696 5.24396 12.1821 3.83963 11.9432 3.84433C11.7043 3.84903 10.3899 4.72489 9.02149 5.79048Z" fill="#0069B7"/>
<path d="M33.3365 33.5482C28.5995 34.7722 28.1043 35.1031 27.2812 37.5887C26.7891 39.0777 26.1501 41.3766 25.862 42.6978C25.3977 44.8259 25.6683 45.3316 28.2344 47.135C30.7672 48.9157 31.4442 49.0655 33.623 48.3284C34.993 47.865 37.0075 46.95 38.0989 46.2961C39.1902 45.6421 41.096 44.2009 42.3342 43.0938C43.5724 41.9867 44.9455 40.424 45.3861 39.6211C46.0385 38.4316 45.6297 37.5989 43.1724 35.1125C41.5143 33.4353 39.7839 32.0976 39.3267 32.1392C38.8696 32.1808 36.1741 32.8151 33.3365 33.5482Z" fill="#0069B7"/>
<path d="M36.5114 5.23454C36.5114 6.00374 38.4116 8.48696 40.734 10.753C43.6899 13.6369 45.3551 14.7213 46.2853 14.3685C47.5228 13.8996 47.5188 13.702 46.2306 11.5214C45.4686 10.2324 43.5049 7.97653 41.8667 6.50714C40.2284 5.03774 38.3536 3.83572 37.6996 3.83572C37.0464 3.83572 36.5114 4.46534 36.5114 5.23454Z" fill="#0069B7"/>
</svg>

<svg width="50" height="50" fill="none" xmlns="http://www.w3.org/2000/svg"><path d="M15.874 2.16c0-.321 1.519-.92 3.374-1.33 1.855-.411 4.445-.782 5.754-.826 1.31-.044 3.743.293 5.406.75 2.463.675 2.98 1.148 2.779 2.544-.204 1.415-1.258 1.974-6.037 3.207l-5.79 1.492-2.742-2.627c-1.51-1.444-2.743-2.89-2.743-3.21Zm5.954 9.188 5.159-1.328c2.837-.73 5.528-1.362 5.98-1.404.451-.041 2.742 1.847 5.091 4.196l4.27 4.272-1.563 5.725-1.564 5.726-6.12 1.546-6.12 1.547-4.132-4.083-4.133-4.082 1.566-6.058 1.566-6.057ZM43.92 23.97c.9-3.095 2.014-5.888 2.472-6.205.46-.317 1.243-.58 1.742-.588.5-.006 1.124.547 1.389 1.229.265.682.48 3.416.477 6.077-.002 2.66-.388 6.203-.858 7.873l-.853 3.037-3.004-2.896-3.002-2.897 1.637-5.63ZM.529 30.556C.239 29.121 0 27.066 0 25.99c0-1.652.187-1.806 1.19-.983.655.537 1.166 1.903 1.136 3.036-.031 1.134-.329 2.75-.663 3.592-.514 1.297-.688 1.132-1.134-1.078Zm5.424-2.731 3.572-.94c1.964-.518 4.298-.975 5.186-1.018.967-.046 3.303 1.613 5.824 4.135l4.21 4.21-1.35 4.757c-.744 2.616-1.877 4.956-2.52 5.199-.641.244-3.011.648-5.266.9-4.076.455-4.121.436-7.811-3.333l-3.712-3.791.934-5.06.933-5.059Zm13.097 20.69c0-.364.803-.785 1.785-.935.983-.152 2.601.224 3.597.835s1.645 1.275 1.443 1.475c-.203.2-1.822.12-3.598-.176-1.775-.297-3.228-.836-3.228-1.199Z" fill="#0086FF"/><path d="M9.021 5.79C7.653 6.856 5.425 9.435 4.07 11.521c-1.355 2.088-2.652 4.828-2.882 6.092-.315 1.74.087 2.853 1.663 4.593l2.08 2.296 4.877-.985c2.682-.54 5.095-1.221 5.361-1.511.267-.29 1.14-3.089 1.94-6.22l1.457-5.69-3.094-3.13c-1.701-1.722-3.289-3.126-3.528-3.122-.239.005-1.553.88-2.922 1.946Zm24.316 27.758c-4.738 1.224-5.233 1.555-6.056 4.04-.492 1.49-1.13 3.789-1.419 5.11-.464 2.128-.194 2.634 2.372 4.437 2.533 1.78 3.21 1.93 5.389 1.193 1.37-.463 3.385-1.378 4.476-2.032 1.091-.654 2.997-2.095 4.235-3.202 1.238-1.107 2.611-2.67 3.052-3.473.652-1.19.244-2.022-2.214-4.509-1.658-1.677-3.388-3.014-3.845-2.973-.457.042-3.153.676-5.99 1.41Zm3.174-28.313c0 .769 1.9 3.252 4.223 5.518 2.956 2.884 4.621 3.968 5.551 3.615 1.238-.468 1.234-.666-.054-2.847-.762-1.289-2.726-3.544-4.364-5.014-1.639-1.47-3.513-2.671-4.167-2.671-.654 0-1.189.63-1.189 1.399Z" fill="#0069B7"/></svg>
